src/main/resources/icons/RubyPsiApiIcons/icons/rails/actions/navigation/gutter/actionToView_dark.svg

<svg xmlns="http://www.w3.org/2000/svg" width="12" height="12" viewBox="0 0 12 12"><rect id="frame" width="12" height="12" fill="none"/><path fill="#AFB1B3" fill-rule="evenodd" d="M10 9h2l-2.5 3L7 9h2V0h1v9zM2 2v2H0l2-2zm1 0h3v8H0V5h3V2z"/></svg>

<svg xmlns="http://www.w3.org/2000/svg" width="12" height="12" viewBox="0 0 12 12">
  <path fill="#AFB1B3" fill-rule="evenodd" d="M10 9L12 9 9.5 12 7 9 9 9 9 0 10 0 10 9zM2 2L2 4 0 4 2 2zM3 2L6 2 6 10 3.19744231e-14 10 3.19744231e-14 5 3 5 3 2z"/>
</svg>
